!! 00008] TT[TB
!! NN
!!!OTL: Da na ba la
!!!ARE: Neimeng Zhelimumeng
!! Ethnic Group: Menggu
!! IV, 359
!!!SCT: C0182
!!!YEM: Copyright 1995, estate of Helmut Schaffrath.
**kern
*ICvox
*Ivox
*M2/4
*k[b-]
*F:
{8a
8cc
8cc
8ff
=1
8dd
8cc
8a
8g
=2
8a
8cc
8cc
16dd
16dd
=3
8.f
16g
8d
8c
=4
[2cc
=5
2cc]}
=6
{8a
8cc
8cc
8ff
=7
8dd
8cc
8a
8g
=8
8a
8cc
8cc
8dd
=9
8.cc
16g
8a
8cc
=10
[2g
=11
2g]}
=12
{8.g
16a
8cc
8cc
=13
8cc
8dd
8d
8c
=14
8.a
16cc
8g
8f
=15
8f
8d
4c}
=16
{4.g
8dd
=17
8.cc
16dd
8cc
8a
=18
8g
8g
8a
8g
=19
8f
8d
4c}
=20
{8a
8a
8cc
8cc
=21
8.g
16f
4d
=22
[2c
=23
2c]}
==
!!!AGN: Xushi ge. NannÅ liqing
!! Zu starkes Netzbrummen, daher noch einmal aufgenommen.
!!!ONB: ESAC (Essen Associative Code) Database: CHINA
!!!AMT: simple duple
!!!AIN: vox
!!!EED: Helmut Schaffrath
!!!EEV: 1.0
*-
!!!ONB: Tied note syntax fixed by Craig Sapp, 2004/05/03/
